X: 20812
M: 6/8
L: 1/8
K: C
V: 1 name="5"
c2d e2f | g3 zag | dfe ced | G3 z2G |\
c2d e2f | g3 Afd | cec gfd | c2e c2 H|]
f2d d^cd | e2c G^FG | GBc def | ege d2G |\
f2d d^cd | e2g g^fg | dbg fef | gbg fe"^D.C."d |]
K: Cm
c2c e2e | d2=B G=AB | c=Bc edc | dg^f g=fd |\
c2c cde | e2d fed | c2c =B=AB | cGe "^D.C."c2 |]


